X:1
T:Mount Auburn, CM
T:George Kingsley (1811-1884)
T:Mount Auburn, CM
T:Public Domain
C:George Kingsley (1811-1884)
Z:Public Domain
%%score ( 1 2 ) ( 3 4 )
L:1/8
M:3/2
K:Eb
V:1 treble 
V:2 treble 
V:3 bass 
V:4 bass 
V:1
 [EG]4 | [GB]2 [EG]2 [GB]4 [Ac]4 | [EG]2 [DF]2 E4 [Ge]4 | [Ad]2 [Ac]2 [GB]4 [EG]4 | %4
 ([EG]4 [DF]4) [DF]4 | [DF]2 [EG]2 [FA]4 [DF]4 | [EG]2 [FA]2 [GB]4 [Ee]4 | %7
 [Ed]2 [Ec]2 ([GB]2 [EG]2) (A2 F2) | E8 |] %9
V:2
 x4 | x12 | x4 E4 x4 | x12 | x12 | x12 | x12 | x8 D4 | E8 |] %9
V:3
 [E,B,]4 | [E,B,]2 [E,B,]2 [E,B,]4 [A,,E]4 | [B,,B,]2 [B,,A,]2 [E,G,]4 [E,B,]4 | %3
 [E,C]2 [E,C]2 (E2 B,2) ([G,B,]2 [E,G,]2) | [B,,B,]8 [B,,B,]4 | %5
 [B,,B,]2 [B,,B,]2 [B,,B,]4 [B,,B,]4 | [E,B,]2 [E,B,]2 [E,B,]4 [G,B,]4 | %7
 [A,C]2 [A,C]2 (E2 B,2) (F,2 A,2) | [E,G,]8 |] %9
V:4
 x4 | x12 | x12 | x4 E,4 x4 | x12 | x12 | x12 | x4 B,4 B,,4 | x8 |] %9

